render/icons/claude.svg

<svg width="40" height="40" viewBox="0 0 40 40" fill="none" xmlns="http://www.w3.org/2000/svg">
<path d="M0 8C0 3.58172 3.58172 0 8 0H32C36.4183 0 40 3.58172 40 8V32C40 36.4183 36.4183 40 32 40H8C3.58172 40 0 36.4183 0 32V8Z" fill="#D77655"/>
<path d="M11.1147 24.8503L16.869 21.6068L16.9657 21.3251L16.869 21.1684L16.5886 21.1683L15.6269 21.1088L12.339 21.0194L9.48764 20.9005L6.72506 20.7516L6.02998 20.6029L5.37842 19.7399L5.44553 19.3095L6.03006 18.9147L6.86732 18.9881L8.71756 19.115L11.4939 19.3075L13.5081 19.4266L16.4919 19.738H16.9657L17.0329 19.5456L16.8709 19.4266L16.7445 19.3075L13.8714 17.3514L10.7612 15.2843L9.13217 14.0939L8.25146 13.4909L7.80717 12.9255L7.61568 11.6916L8.41545 10.8068L9.48967 10.8802L9.76412 10.9537L10.8522 11.7947L13.1764 13.602L16.2114 15.8477L16.6557 16.2187L16.8334 16.0918L16.8551 16.0025L16.6557 15.6673L15.0049 12.6696L13.2435 9.62057L12.4595 8.35685L12.2522 7.59907C12.1791 7.28763 12.1258 7.0258 12.1258 6.70636L13.0362 5.46446L13.5397 5.30176L14.7541 5.46446L15.2656 5.91081L16.0199 7.64474L17.2422 10.3745L19.1379 14.0862L19.6929 15.1872L19.989 16.2069L20.0997 16.5184L20.291 16.5183V16.3397L20.447 14.2488L20.7353 11.6817L21.0157 8.37867L21.1125 7.44829L21.5705 6.33331L22.4808 5.7303L23.1917 6.07156L23.7762 6.91262L23.6953 7.45622L23.3477 9.72566L22.6665 13.2806L22.2222 15.6612H22.481L22.7772 15.3637L23.9758 13.7648L25.9901 11.2354L26.8787 10.2316L27.9154 9.12265L28.5808 8.59491L29.8386 8.59483L30.7647 9.97753L30.3501 11.4059L29.0547 13.0564L27.9804 14.455L26.4401 16.538L25.4785 18.2044L25.5674 18.3373L25.7965 18.3155L29.2758 17.5715L31.1557 17.2303L33.399 16.8436L34.414 17.3197L34.5246 17.8037L34.1257 18.7936L31.7265 19.3888L28.9126 19.9542L24.7222 20.9501L24.6709 20.9878L24.7301 21.0612L26.6179 21.2398L27.4255 21.2834H29.4022L33.0829 21.5592L34.0446 22.198L34.6212 22.9796L34.5245 23.5748L33.0435 24.3326L31.0451 23.8565L26.3809 22.7416L24.7814 22.3408L24.5603 22.3408V22.4737L25.8932 23.783L28.3358 25.999L31.3946 28.8556L31.5506 29.5619L31.1576 30.1194L30.743 30.0599L28.0554 28.0284L27.0187 27.1139L24.6708 25.1281L24.5149 25.128V25.3363L25.056 26.1318L27.9133 30.4466L28.0614 31.7699L27.8541 32.2004L27.1136 32.4602L26.3 32.3115L24.6275 29.9526L22.9015 27.2963L21.5094 24.9158L21.3397 25.0129L20.5182 33.9024L20.1331 34.3567L19.2445 34.698L18.504 34.1325L18.1111 33.218L18.504 31.4107L18.9779 29.052L19.363 27.1773L19.7105 24.8483L19.9179 24.0745L19.904 24.023L19.7343 24.0448L17.9866 26.4551L15.3287 30.0637L13.2257 32.3253L12.7222 32.5257L11.8493 32.0713L11.9303 31.26L12.418 30.5379L15.3287 26.8183L17.0842 24.513L18.2176 23.1818L18.2097 22.9895H18.1426L10.4119 28.0323L9.03545 28.2109L8.44303 27.6534L8.51615 26.7388L8.79654 26.4413L11.1207 24.8344L11.1128 24.8424L11.1147 24.8503Z" fill="#FCF2EE"/>
</svg>

<svg xmlns="http://www.w3.org/2000/svg" width="40" height="40" fill="none">
  <path fill="#D77655" d="M0 8a8 8 0 0 1 8-8h24a8 8 0 0 1 8 8v24a8 8 0 0 1-8 8H8a8 8 0 0 1-8-8V8Z"/>
  <path fill="#FCF2EE" d="m11.115 24.85 5.754-3.243.097-.282-.097-.157h-.28l-.962-.06-3.288-.089-2.851-.118-2.763-.15-.695-.148-.652-.863.068-.43.584-.395.837.073 1.85.127 2.777.193 2.014.119 2.984.311h.474l.067-.192-.162-.12-.127-.118-2.873-1.957-3.11-2.067-1.629-1.19-.88-.603-.445-.566-.191-1.233.8-.885 1.074.073.274.074 1.088.84 2.324 1.808 3.035 2.246.445.37.177-.126.022-.09-.2-.335-1.65-2.997-1.762-3.05-.784-1.263-.207-.758c-.073-.311-.126-.573-.126-.893l.91-1.242.504-.162 1.214.162.512.447.754 1.734 1.222 2.73 1.896 3.711.555 1.101.296 1.02.11.311h.192v-.178l.156-2.091.288-2.567.28-3.303.098-.93.457-1.116.91-.603.712.342.584.84-.08.544-.348 2.27-.681 3.555-.445 2.38h.259l.296-.297 1.199-1.6 2.014-2.529.889-1.003 1.036-1.11.666-.527h1.258l.926 1.383-.415 1.428-1.295 1.65-1.075 1.399-1.54 2.083-.962 1.666.09.133.229-.021 3.479-.744 1.88-.342 2.243-.386 1.015.476.11.484-.398.99-2.4.595-2.813.565-4.19.996-.052.038.06.073 1.887.179.808.043h1.976l3.68.276.963.639.576.782-.096.595-1.481.758-1.999-.476-4.664-1.115-1.6-.401h-.22v.133l1.332 1.309 2.443 2.216 3.059 2.857.156.706-.393.557-.415-.06-2.688-2.03-1.036-.915-2.348-1.986h-.156v.208l.541.796 2.857 4.315.148 1.323-.207.43-.74.26-.814-.148-1.672-2.36-1.727-2.656-1.392-2.38-.17.097-.82 8.89-.386.454-.889.341-.74-.566-.393-.914.393-1.807.474-2.359.385-1.875.348-2.329.207-.773-.014-.052-.17.022-1.747 2.41-2.658 3.609-2.103 2.261-.504.2-.873-.454.081-.811.488-.722 2.91-3.72 1.756-2.305 1.134-1.331-.008-.192h-.067l-7.731 5.042-1.377.179-.592-.558.073-.914.28-.298 2.325-1.607-.008.008.002.008Z"/>
</svg>
